images/s1.svg

<svg width="13" height="20" viewBox="0 0 13 20" fill="none" xmlns="http://www.w3.org/2000/svg">
<path d="M12.1481 11.25L12.8222 7.63047H8.60725V5.28164C8.60725 4.29141 9.19605 3.32617 11.0838 3.32617H13V0.244531C13 0.244531 11.2611 0 9.59853 0C6.12738 0 3.85847 1.73359 3.85847 4.87188V7.63047H0V11.25H3.85847V20H8.60725V11.25H12.1481Z" fill="white"/>
</svg>

<svg width="13" height="20" fill="none" xmlns="http://www.w3.org/2000/svg"><path d="m12.148 11.25.674-3.62H8.607V5.282c0-.99.59-1.956 2.477-1.956H13V.245S11.261 0 9.599 0c-3.472 0-5.74 1.734-5.74 4.872V7.63H0v3.62h3.858V20h4.75v-8.75h3.54Z" fill="#fff"/></svg>
